assets/images/icons/quote.svg

<svg width="48" height="48" viewBox="0 0 48 48" fill="none" xmlns="http://www.w3.org/2000/svg">
<g id="fi_4662608" opacity="0.1">
<g id="_x36_6.QuoteRight">
<path id="Vector" d="M31.3242 24H38.6484V29.8594C38.6484 33.0912 36.0209 35.7188 32.7891 35.7188H32.0567C30.8391 35.7188 29.8594 36.6983 29.8594 37.9161V42.3106C29.8594 43.5282 30.839 44.5079 32.0567 44.5079H32.7891C40.8823 44.5079 47.4375 37.9527 47.4375 29.8595V7.88672C47.4375 5.46056 45.4691 3.49219 43.043 3.49219H31.3242C28.8981 3.49219 26.9297 5.46056 26.9297 7.88672V19.6055C26.9297 22.0316 28.8981 24 31.3242 24Z" fill="#7FB51F"/>
<path id="Vector_2" d="M4.95703 24H12.2812V29.8594C12.2812 33.0912 9.65372 35.7188 6.42188 35.7188H5.6895C4.47187 35.7188 3.49219 36.6983 3.49219 37.9161V42.3106C3.49219 43.5282 4.47178 44.5079 5.6895 44.5079H6.42188C14.5151 44.5079 21.0703 37.9527 21.0703 29.8595V7.88672C21.0703 5.46056 19.1019 3.49219 16.6758 3.49219H4.95703C2.53087 3.49219 0.5625 5.46056 0.5625 7.88672V19.6055C0.5625 22.0316 2.53087 24 4.95703 24Z" fill="#7FB51F"/>
</g>
</g>
</svg>

<svg xmlns="http://www.w3.org/2000/svg" width="48" height="48" fill="none"><path fill="#7FB51F" d="M31.324 24h7.324v5.86a5.865 5.865 0 0 1-5.859 5.859h-.732c-1.218 0-2.198.98-2.198 2.197v4.395c0 1.217.98 2.197 2.198 2.197h.732c8.093 0 14.648-6.555 14.648-14.649V7.887a4.396 4.396 0 0 0-4.394-4.395H31.324a4.396 4.396 0 0 0-4.394 4.395v11.718A4.396 4.396 0 0 0 31.324 24M4.957 24h7.324v5.86a5.865 5.865 0 0 1-5.86 5.859H5.69c-1.217 0-2.197.98-2.197 2.197v4.395c0 1.217.98 2.197 2.198 2.197h.732c8.093 0 14.648-6.555 14.648-14.649V7.887a4.396 4.396 0 0 0-4.394-4.395H4.957A4.396 4.396 0 0 0 .563 7.887v11.718A4.396 4.396 0 0 0 4.957 24" opacity=".1"/></svg>
